!! 00000] TT[WS
!!!OTL: Ba cong
!!!ARE: Asia, China,ÿShanxi Linxian
!! Ethnic Group: Han
!! WI, 146 (2)
!!!SCT: J0176
!!!YEM: Copyright 1995, estate of Helmut Schaffrath.
**kern
*ICvox
*Ivox
*M2/4
*k[f#c#]
*D:
{8.ee
16ff#
8ee
8dd
=1
8ee
4b
8a
=2
8.b
16cc#
8b
8e}
=3
{8.ee
16ff#
8ee
8dd
=4
8ee
4b
8a
=5
8.b
16cc#
8b
8e}
=6
{4a
4b
=7
8a
4e
8dd
=8
4b
4dd
=9
8ee
8cc#
8b
8a}
=10
{8b
4g
8a
=11
8b
8dd
8a
8f#
=12
8a
4e
8d
=13
2e}
==
!!!AGN: Xiaodiao. Qingge
!!!ONB: ESAC (Essen Associative Code) Database: CHINA
!!!AMT: simple duple
!!!AIN: vox
!!!EED: Helmut Schaffrath
!!!EEV: 1.0
*-
